X:26
T:Bucks of Oranmore (reel), The
B:CRE2.248 (Boic ÃÂÃÂÃÂ¢ÃÂÃÂrÃÂÃÂÃÂÃÂ¡in MhÃÂÃÂÃÂÃÂ³ir)
F:file ID: cre.2/026bucks_o
L:1/8
N:Breathnach's version of this tune indicates that it
is played A-B-C-D-A, but in my experience it's always
played with four, not five, parts.
M:C
R:reel
Q:180
K:D
dB||ADFD ADFD|ADFD BEED|ADFD A2Bd|(3efg fd eddB|
"5"ADFD ADFD|ADFD BEED|ADFD A2 (3Bcd|(3efg fd AddB||
"9"Adfd edfd|Adfd edBd|Adfd edef|(3gfe fd edBd|
"13"Adfd edfd|Adfd edBA|faa/b/a (3bag fe|defd Aaag||
"17"(3fef df e2de|(3fef df edBd|fdd/c/d edef|(3gfe fd AdBe|
"21"(3fef df e2de|(3fef df edBA|faa/b/a (3bag fe|defd AddB||
"25"AFFF AFdB|BAFD (3EEE ED|FA^GA A2Bd|(3efg ge fded|
"29"AF (3FEF A2dB|BAFD (3EFE ED|FA^GA A2Bd|(3gfe fd AdBA||

%%%

